!!!!SEGMENT: ss016-Chinese_M.krn
!!!COM: Friedrich von Flotow
!!!OTL1: Chinese
!!!OTL2:Alessandro Stradella
!!!OPR:The Remick Folio of Moving Picture Music
!!!YOY:1914
!!!ONB: National
**kern	**dynam
*clefG2	*
*k[]	*
*C:	*
*M2/4	*
=1	=1
!LO:TX:a:B:t=Allegro Moderato	!
8gL	mf
8ccJ	.
8ccL	.
8bJ	.
=2	=2
16ccLL	.
16ddJ	.
8eeJ	.
8eeL	.
8ddJ	.
=3	=3
(8qdd/	.
8ccL)	.
8bJ	.
(8qb/	.
8aL)	.
8gJ	.
=4	=4
8aL	.
8ddJ	.
8.a^L	.
16bJk	.
=5	=5
8gL	.
8ccJ	.
8ccL	.
8bJ	.
=6	=6
16ccLL	.
16ddJ	.
8eeJ	.
8eeL	.
8ddJ	.
=7	=7
(8qdd/	.
8ccL)	.
8bJ	.
(8qb/	.
8aL)	.
8gJ	.
=8	=8
8aL	.
8ddJ	.
8cc	.
8r	.
!LO:TX:b:i:t=Fine	!
=9||	=9||
8ddL	.
8ggJ	.
8ggL	.
8eeJ	.
=10	=10
16ddLL	.
16ccJ	.
8bJ	.
8bL	.
8gJ	.
=11	=11
8ddL	.
8ggJ	.
8ggL	.
8eeJ	.
=12	=12
16ddLL	.
16ccJ	.
8bJ	.
4b^	.
=13	=13
8ddL	.
8ggJ	.
8ggL	.
8eeJ	.
=14	=14
16ddLL	.
16ccJ	.
8bJ	.
8bL	.
8gJ	.
=15	=15
8ddL	.
8ggJ	.
8ggL	.
8eeJ	.
=16	=16
16ddLL	.
16ccJ	.
8bJ	.
4dd^	.
!LO:TX:b:i:t=D.C. al Fine	!
=||	=||
*-	*-
!!!ENC: Yukiko Yoden
!!!END: 2022/03/21